X: 1
T: Andro
C: Trad (fluxus)
M: 4/4
L: 1/8
R:An-dro
%F:http://www.boombaltunes.be/tunes/abc/an-trad_flxs.abc 2008-02-12 11:50:05 UT
K: Cmin
|:cded c2g2|e2c2 d2g2|fgfe d2c2|e2c2 d2z2|\
|cded c2g2|e2c2 d2g2|fgfe d2c2|ecdB c2z2:||
|:cdef g2g2|f2b2 g2e2|cdeg f3g|fgfe d2z2|\
|cdef g2g2|f2b2 g2e2|cdeg f2d2|ecdB c2z2:||
%%newpage
%%center Branles
